**kern	**kern	**dynam
*part1	*part1	*part1
*staff2	*staff1	*
*I"Piano	*	*
*clefF4	*clefF4	*
*k[f#c#g#]	*k[f#c#g#]	*
*M2/4	*M2/4	*
=1	=1	=1
(4AAA 4AA	(4E 4A 4c#	p
4BBB 4AA	4E 4A 4d	.
=	=	=
4.CC# 4.AA	4.E 4.A 4.e	.
8BBB) 8AA	8E) 8G# 8d	.
=	=	=
(4AAA 4AA	(4E 4A 4c#	.
4EE	4E 4G# 4B	.
=	=	=
4FF#	4C# 4F# 4A	>
4DD	4F# 4A 4d	.
=	=	=
2EE	2E 2A 2c#	.
=	=	=
2EE)	2E) 2G# 2B	p
*	*clefG2	*
=	=	=
*^	*	*
8AL	(4AA	(8c#L 8cc#	]
!	!	!LO:TX:a:i:t=legato	!
8E	.	8e	.
8B	4BB	8d 8dd	.
8EJ	.	8g#J	.
=	=	=	=
8c#L	4C#	8eL 8ee	.
8E	.	8a	.
8B	4BB)	8d 8dd	.
8EJ	.	8g#J)	.
*v	*v	*	*
=	=	=
(8AAL 8A	(8c#L 8a 8cc#	.
8EE 8E	8B 8g# 8b	.
8FF# 8F#	8A 8f# 8a	.
8DDJ 8D	8dJ 8f# 8dd	.
=	=	=
8EEL 8E	8c#L 8a 8cc#	.
8AA	8e	.
8E	8B 8g# 8b	.
8G#J)	8eJ)	.
=	=	=
*-	*-	*-
!!!system-decoration: {(s1,s2)}
